icons/cloud-help-outline.svg

<svg xmlns="http://www.w3.org/2000/svg" width="24" height="24" viewBox="0 0 24 24">
  <path d="M12.5,3 C16.918278,3 20.5,6.581722 20.5,11 C20.5,11.1204206 20.4973322,11.2405319 20.4920144,11.3602705 L20.4920144,11.3602705 L20.472,11.654 L20.5287365,11.6859719 C21.9683651,12.5292172 22.9183208,14.0574067 22.9949844,15.7749408 L22.9949844,15.7749408 L23,16 C23,18.6686219 20.9044736,20.8633628 18.2241536,20.9948042 L18.2241536,20.9948042 L18,21 L6.5,21 C6.38859112,21 6.28147754,20.9817932 6.18145173,20.9482064 L6.18145173,20.9482064 L6.166,20.942 L5.94889404,20.9081606 C3.19270368,20.4215684 1.11197825,18.064907 1.0043751,15.2308104 L1.0043751,15.2308104 L1,15 C1,12.5890868 2.43448394,10.4577805 4.56984355,9.51249345 L4.56984355,9.51249345 L4.646,9.48 L4.66919046,9.36089212 C5.4117318,5.78500472 8.52762508,3.12063681 12.2455902,3.00398632 L12.2455902,3.00398632 Z M12.5,5 C9.43685135,5 6.87436978,7.30747742 6.53871277,10.3255833 C6.49452585,10.7228961 6.21795931,11.0557172 5.83545006,11.171892 C4.16485155,11.6792823 3,13.2264394 3,15 C3,17.0601278 4.56515494,18.7784159 6.59904064,18.980229 L6.59904064,18.980229 L6.65802984,18.9878352 L6.722,19 L17.9754867,19.0003005 L18.1505472,18.9963105 C19.7424301,18.9180655 21,17.600955 21,16 C21,14.7340634 20.2086704,13.6174613 19.0426136,13.1870228 C18.5876682,13.0190841 18.3187909,12.5489278 18.4047462,12.0716539 C18.4679372,11.7207805 18.5,11.3626762 18.5,11 C18.5,7.6862915 15.8137085,5 12.5,5 Z M12.0001686,15 C12.5524586,15 13.0001686,15.4477 13.0001686,16 C13.0001686,16.5523 12.5524586,17 12.0001686,17 C11.4478886,17 11.0001686,16.5523 11.0001686,16 C11.0001686,15.4477 11.4478886,15 12.0001686,15 Z M12.0001686,9 C12.5537486,9 13.1555886,9.16344 13.6376686,9.525 C14.1397686,9.90158 14.5001686,10.48991 14.5001686,11.25 C14.5001686,11.69838 14.3847686,12.07994 14.1710686,12.4004 C13.9664386,12.70737 13.7009186,12.91339 13.4787086,13.06154 C13.3700286,13.134 13.2594286,13.20036 13.1657686,13.25656 L13.1657686,13.25656 C13.0591686,13.32052 12.9769786,13.37001 12.9005986,13.42093 C12.7478286,13.52279 12.6695886,13.59803 12.6242286,13.66609 C12.3944886,14.01075 11.9288386,14.10391 11.5841786,13.87417 C11.2395186,13.64442 11.1463586,13.17878 11.3760986,12.83412 C11.5807386,12.52712 11.8462486,12.32107 12.0684786,12.1729 C12.1772086,12.10041 12.2878586,12.03402 12.3815586,11.9778 L12.3815586,11.9778 C12.4880486,11.9139 12.5702386,11.86441 12.6466286,11.81349 C12.7994086,11.71162 12.8776486,11.63639 12.9229986,11.56835 C12.9593586,11.51381 13.0001686,11.42662 13.0001686,11.25 C13.0001686,11.01009 12.9022286,10.84842 12.7376686,10.725 C12.5530786,10.58656 12.2799186,10.5 12.0001686,10.5 C11.6314086,10.5 11.4046986,10.59004 11.2599386,10.68654 C11.1104886,10.78617 11.0014986,10.92438 10.9209886,11.08541 C10.7357486,11.45589 10.2852386,11.60606 9.91475858,11.42082 C9.54426858,11.23558 9.39409858,10.78507 9.57934858,10.41459 C9.74882858,10.07562 10.0148386,9.71383 10.4278886,9.43846 C10.8456386,9.15996 11.3689286,9 12.0001686,9 Z"/>
</svg>

<svg xmlns="http://www.w3.org/2000/svg" viewBox="0 0 24 24">
  <path d="M12.5 3a8 8 0 0 1 8 8.36l-.03.3.06.03a5 5 0 0 1 2.46 4.08L23 16a5 5 0 0 1-4.78 5H6.5a1 1 0 0 1-.32-.05h-.01l-.22-.04A6 6 0 0 1 1 15.23V15a6 6 0 0 1 3.57-5.49l.08-.03.02-.12A8 8 0 0 1 12.25 3zm0 2a6 6 0 0 0-5.96 5.33 1 1 0 0 1-.7.84 4 4 0 0 0 .76 7.81h.06l.06.02h11.43a3 3 0 0 0 .9-5.81 1 1 0 0 1-.65-1.12A6 6 0 0 0 12.5 5zM12 15a1 1 0 1 1 0 2 1 1 0 0 1 0-2zm0-6c.55 0 1.16.16 1.64.53.5.37.86.96.86 1.72a2.03 2.03 0 0 1-1.02 1.81l-.31.2-.27.16a.96.96 0 0 0-.28.25.75.75 0 0 1-1.24-.84c.2-.3.47-.5.69-.66l.31-.2c.1-.06.19-.1.27-.16.15-.1.23-.17.27-.24a.54.54 0 0 0 .08-.32c0-.24-.1-.4-.26-.53a1.26 1.26 0 0 0-.74-.22c-.37 0-.6.09-.74.19a1 1 0 0 0-.34.4.75.75 0 0 1-1.34-.68c.17-.33.43-.7.85-.97.42-.28.94-.44 1.57-.44z"/>
</svg>
